X:1
T: Merry may the Pair be
C:
R:Reel
Q: 232
K:A
M:4/4
L:1/8
|:A2 Aa cA ec|A2 Aa cA ea|A2 Aa cA ec|dB Bc de fa|
A2 Aa cA ec|A2 Aa cA ea|A2 Aa cA BG|AB, B,C DE FG|
AA GA FA ED|CA, EA, FA, EG|AA GA FA EC|DB, B,C DE FG|
AA GA FA ED|CA, EA, FA, Ed|cA eA aA ec|dB fB bB fa:|
